public/Experience.svg

<svg width="50" height="50" viewBox="0 0 50 50" fill="none" xmlns="http://www.w3.org/2000/svg">
<path fill-rule="evenodd" clip-rule="evenodd" d="M38.889 8.82352C38.889 6.48337 38.0108 4.23908 36.4481 2.58435C34.8852 0.929619 32.7656 0 30.5556 0H19.4444C17.2343 0 15.1147 0.929619 13.5519 2.58435C11.9891 4.23908 11.1111 6.48337 11.1111 8.82352H8.33333C6.12319 8.82352 4.00358 9.75315 2.44077 11.4079C0.877973 13.0626 0 15.3069 0 17.6471V41.1765C0 43.5167 0.877973 45.7608 2.44077 47.4156C4.00358 49.0704 6.12319 50 8.33333 50H41.6667C43.8769 50 45.9965 49.0704 47.5592 47.4156C49.1221 45.7608 50 43.5167 50 41.1765V17.6471C50 15.3069 49.1221 13.0626 47.5592 11.4079C45.9965 9.75315 43.8769 8.82352 41.6667 8.82352H38.889ZM30.5556 5.88235H19.4444C18.7077 5.88235 18.0012 6.19223 17.4802 6.74381C16.9593 7.29537 16.6667 8.04348 16.6667 8.82352H33.3333C33.3333 8.04348 33.0406 7.29537 32.5198 6.74381C31.9987 6.19223 31.2923 5.88235 30.5556 5.88235V5.88235ZM8.33333 14.7059H41.6667C42.4033 14.7059 43.11 15.0157 43.6308 15.5673C44.1519 16.1189 44.4444 16.867 44.4444 17.6471V41.1765C44.4444 41.9565 44.1519 42.7046 43.6308 43.2562C43.11 43.8077 42.4033 44.1177 41.6667 44.1177H8.33333C7.59662 44.1177 6.89008 43.8077 6.36915 43.2562C5.84821 42.7046 5.55556 41.9565 5.55556 41.1765V17.6471C5.55556 16.867 5.84821 16.1189 6.36915 15.5673C6.89008 15.0157 7.59662 14.7059 8.33333 14.7059Z" fill="#1096E1"/>
</svg>

<svg xmlns="http://www.w3.org/2000/svg" width="50" height="50" fill="none" xmlns:v="https://vecta.io/nano"><path fill-rule="evenodd" d="M38.889 8.824c0-2.34-.878-4.584-2.441-6.239S32.766 0 30.556 0H19.444c-2.21 0-4.33.93-5.893 2.584s-2.441 3.899-2.441 6.239H8.333c-2.21 0-4.33.93-5.893 2.584S0 15.307 0 17.647v23.529c0 2.34.878 4.584 2.441 6.239S6.123 50 8.333 50h33.333c2.21 0 4.33-.93 5.892-2.584S50 43.517 50 41.177V17.647c0-2.34-.878-4.584-2.441-6.239s-3.682-2.584-5.892-2.584h-2.778zm-8.333-2.941H19.444c-.737 0-1.443.31-1.964.861s-.814 1.3-.814 2.08h16.667c0-.78-.293-1.528-.814-2.08s-1.227-.861-1.964-.861h0zM8.333 14.706h33.333c.737 0 1.443.31 1.964.861a3.03 3.03 0 0 1 .814 2.08v23.529a3.03 3.03 0 0 1-.814 2.08c-.521.551-1.227.861-1.964.861H8.333c-.737 0-1.443-.31-1.964-.861s-.814-1.3-.814-2.08V17.647c0-.78.293-1.528.814-2.08s1.227-.861 1.964-.861z" fill="#1096e1"/></svg>
